X: 131669
T: Munster Slip
T: Port na Mumhan
S: B.Breathnach:"Ceol Rince na hEireann" IV/45 
Z: B.Black
L: 1/8
M: 9/8
R: slipjig
K: D
d/B/|AFD DE/F/D G2A|BGE EF/G/E G2B|AFD DE/F/D G2A|\
Bc/d/B AFD D2 :|
f/g/|afd def g2a|bge e/f/g/e g2b|afa geg fdA|\
Bc/d/B AFD D2 :|
